!!!COM: Bach, Johann Sebastian
!!!OPR: Joh. Seb. Bachs vierstimmige Choralgesänge
!!!XEN: Four-part Chorales
!!!OTL: 102. Jesu, der du selbst so wohl
!!!SCT: BWV 355
!!!SCA: Thematisch-systematisches Verzeichnis der musikalischen Werke Johann Sebastian Bach: Bach-Werke-Verzeichnis (Schmieder)
!!!YOR: Bach Gesellschaft Edition xxxix
!!!ENC: Steven Rasmussen
!!!CDT: 1685/3//-1750/7/28/
!!!OCY: Deutschland
!!!YEC: Copyright (c) 1994, 2000 Center for Computer Assisted Research in the Humanities
!!!YEM: Rights to all derivative editions reserved
!!!YEN: United States of America
**kern	**silbe	**kern	**kern	**kern
*I:[SOPRANO]	*I:[SOPRANO]	*I:[ALTO]	*I:[TENORE]	*I:[BASSO]
*clefG2	*	*clefG2	*clefGv2	*clefF4
*k[f#c#g#]	*	*k[f#c#g#]	*k[f#c#g#]	*k[f#c#g#]
*A:	*	*A:	*A:	*A:
*M4/4	*	*M4/4	*M4/4	*M4/4
=1-	=1-	=1-	=1-	=1-
4cc#	Je-	4e	4A	4AA
4a	-su,	4e	4A	4C#
4b	der	4f#	4A	4D
4b	du	4e	4G#	4E
=2	=2	=2	=2	=2
4cc#	selbst	4e	4A	8AL
.	.	.	.	8G#J
4dd#	so	4f#	4A	4F#
2ee;	wohl	2g#;	2B;	2E;
=3	=3	=3	=3	=3
4b	hast	4g#	4e	8EL
.	.	.	.	8DJ
4cc#	den	4a	4e	4C#
4dd	Tod	8aL	8dL	4BB
.	.	8g#J	8BJ	.
4cc#	ge-	4a	4e	4AA
=4	=4	=4	=4	=4
2b	-schme-	4a	8f#L	4D
.	.	.	8d	.
.	.	4g#	8B	4E
.	.	.	16eL	.
.	.	.	16dJJ	.
2a;	-cket,	2e;	2c#;	2AA;
=5	=5	=5	=5	=5
4b	hilf	4g#	4e	4E
4b	mir,	4g#	4e	8EL
.	.	.	.	8DJ
4ee	wenn	4g#	8eL	4C#
.	.	.	8dJ	.
4ee	ich	4a#	4c#	4F#
=6	=6	=6	=6	=6
4dd	ster-	4f#	4c#	8BBL
.	.	.	.	8C#J
4dd	-ben	4f#	4B	8DL
.	.	.	.	8EJ
2cc#;	soll,	2f#;	(4B	2F#;
.	.	.	4A#;)	.
=7	=7	=7	=7	=7
4b	wenn	4.f#	8d#L	8BL
.	.	.	8c#J	8AJ
4b	der	.	4B	4G#
.	.	8e	.	.
4a	Tod	8eL	8c#L	4F#
.	.	8d#J	8AJ	.
4g#	mich	4e	4B	4E
=8	=8	=8	=8	=8
2f#	schre-	4e	4c#	4AA
.	.	4d#	8BL	4BB
.	.	.	8AJ	.
2e;	-cket:	2B;	2G#;	2E;
=9	=9	=9	=9	=9
4a	Wenn	4e	8AL	8C#L
.	.	.	8BJ	8BBJ
4a	mich	4e	8c#L	8AAL
.	.	.	8BJ	8GG#J
4dd	mein	8f#L	8AL	8FF#L
.	.	8g#J	8G#J	8EEJ
4dd	Ge-	8aL	8F#L	8FF#L
.	.	8bJ	8EJ	8GG#J
=10	=10	=10	=10	=10
4cc#	-wis-	8bL	4e	8AAL
.	.	16aL	.	8BBJ
.	.	16g#JJ	.	.
4cc#	-sen	4a	4e	8C#L
.	.	.	.	8DJ
2b;	nagt	(4a	2e;	2E;
.	.	4g#;)	.	.
=11	=11	=11	=11	=11
4a	und	4f#	8c#L	8F#L
.	.	.	8dJ	8EJ
4a	die	4gn	4e	8DL
.	.	.	.	8C#J
4a	SÃ¼n-	4f#	4e	8DL
.	.	.	.	8EJ
4a	-den	4f#	8dL	8F#L
.	.	.	8c#J	8EJ
=12	=12	=12	=12	=12
2b	pla-	8f#L	8BL	8D#
.	.	8eJ	8G#	4E
.	.	4f#	8A	.
.	.	.	16BL	8D#
.	.	.	16AJJ	.
2e;	-gen,	2B;	2G#;	2E;
=13	=13	=13	=13	=13
4ee	wenn	(8c#	8AL	4AA
.	.	4a)	8c#J	.
4dd	der	.	8dL	4BB
.	.	8g#	8BJ	.
4cc#	Sa-	4.a	8eL	8C#L
.	.	.	8f#J	8DJ
4b	-tan	.	8BL	4E
.	.	8g#	16eL	.
.	.	.	16dJJ	.
=14	=14	=14	=14	=14
4a	mich	8g#L	4c#	4F#
.	.	8f#J	.	.
4g#	ver-	8f#L	8.c#L	4C#
.	.	8e#J	.	.
.	.	.	16BJk	.
2f#;	-klagt,	2f#;	2A;	2D;
=15	=15	=15	=15	=15
4b	lass	8f#L	4d	8DL
.	.	8g#J	.	8EJ
4a	mich	4a	4e	8DL
.	.	.	.	8C#J
4dd	nicht	8aL	8dL	8BBL
.	.	8g#J	8BJ	8EJ
4cc#	ver-	4a	8c#L	8AAL
.	.	.	8eJ	8C#J
=16	=16	=16	=16	=16
2b	-za-	4a	8f#L	8DL
.	.	.	8d	8BBJ
.	.	4g#	8B	4E
.	.	.	16eL	.
.	.	.	16dJJ	.
2a;	-gen.	2e;	2c#;	2AA;
==|!	==|!	==|!	==|!	==|!
*-	*-	*-	*-	*-
!!!RWG: Key is interpreted using the Humdrum key tool.
!!!END: 1994/07/08
!!!EMD: Converted from MuseData to Humdrum Dec 19, 2000, by Andreas Kornstaedt using muse2kern.
!!!EED: Craig Stuart Sapp
!!!EEV: 2024/03/31
!!!ONB: Some non-unicode characters
